website/assets/images/level-5.svg

<?xml version="1.0" encoding="UTF-8"?>
<svg width="28px" height="30px" viewBox="0 0 28 30" version="1.1" xmlns="http://www.w3.org/2000/svg" xmlns:xlink="http://www.w3.org/1999/xlink">
    <!-- Generator: Sketch 46.2 (44496) - http://www.bohemiancoding.com/sketch -->
    <title>Polygon</title>
    <desc>Created with Sketch.</desc>
    <defs></defs>
    <g id="Visual-1" stroke="none" stroke-width="1" fill="none" fill-rule="evenodd">
        <g id="3.-Icon" transform="translate(-1104.000000, -953.000000)" fill-rule="nonzero" fill="#FFFFFF">
            <g id="Game-Rank" transform="translate(618.000000, 953.000000)">
                <g id="5" transform="translate(486.000000, 0.000000)">
                    <g id="Polygon">
                        <path d="M14,1 L1.87564435,8 L1.87564435,22 L14,29 L26.1243557,22 L26.1243557,8 L14,1 Z M14.5,0.133974596 L26.6243557,7.1339746 C26.9337567,7.31260739 27.1243557,7.64273441 27.1243557,8 L27.1243557,22 C27.1243557,22.3572656 26.9337567,22.6873926 26.6243557,22.8660254 L14.5,29.8660254 C14.1905989,30.0446582 13.8094011,30.0446582 13.5,29.8660254 L1.37564435,22.8660254 C1.06624327,22.6873926 0.875644347,22.3572656 0.875644347,22 L0.875644347,8 C0.875644347,7.64273441 1.06624327,7.31260739 1.37564435,7.1339746 L13.5,0.133974596 C13.8094011,-0.0446581987 14.1905989,-0.0446581987 14.5,0.133974596 Z M10.2317777,17.556966 C9.98709678,17.4289587 9.68497331,17.5235414 9.55696603,17.7682223 C9.42895874,18.0129032 9.5235414,18.3150267 9.76822231,18.443034 L13.6975436,20.498698 C13.8406433,20.5735621 14.0110914,20.5746976 14.1551758,20.5017467 L18.2152954,18.4460827 C18.46166,18.3213467 18.5602596,18.0205102 18.4355236,17.7741455 C18.3107876,17.5277809 18.0099511,17.4291813 17.7635865,17.5539173 L13.9330675,19.4933331 L10.2317777,17.556966 Z M10.2317777,20.556966 C9.98709678,20.4289587 9.68497331,20.5235414 9.55696603,20.7682223 C9.42895874,21.0129032 9.5235414,21.3150267 9.76822231,21.443034 L13.6975436,23.498698 C13.8406433,23.5735621 14.0110914,23.5746976 14.1551758,23.5017467 L18.2152954,21.4460827 C18.46166,21.3213467 18.5602596,21.0205102 18.4355236,20.7741455 C18.3107876,20.5277809 18.0099511,20.4291813 17.7635865,20.5539173 L13.9330675,22.4933331 L10.2317777,20.556966 Z M11.7251393,14.1310772 L13.7673294,13.0574343 C13.9129914,12.9808552 14.0870086,12.9808552 14.2326706,13.0574343 L16.2748607,14.1310772 L15.8848371,11.857065 C15.8570182,11.694868 15.9107924,11.5293679 16.0286354,11.4144993 L17.680802,9.80403493 L15.397564,9.47226102 C15.2347089,9.44859679 15.0939261,9.34631211 15.0210951,9.19874037 L14,7.12977573 L12.9789049,9.19874037 C12.9060739,9.34631211 12.7652911,9.44859679 12.602436,9.47226102 L10.319198,9.80403493 L11.9713646,11.4144993 C12.0892076,11.5293679 12.1429818,11.694868 12.1151629,11.857065 L11.7251393,14.1310772 Z M11.2937443,15.4876507 C10.9269306,15.6804961 10.4982144,15.3690155 10.5682696,14.9605624 L11.0851184,11.9471024 L8.89571157,9.81295821 C8.59895306,9.52369016 8.76270809,9.01970402 9.17281826,8.96011152 L12.1985041,8.52045363 L13.551632,5.77871714 C13.7350388,5.40709429 14.2649612,5.40709429 14.448368,5.77871714 L15.8014959,8.52045363 L18.8271817,8.96011152 C19.2372919,9.01970402 19.4010469,9.52369016 19.1042884,9.81295821 L16.9148816,11.9471024 L17.4317304,14.9605624 C17.5017856,15.3690155 17.0730694,15.6804961 16.7062557,15.4876507 L14,14.0648879 L11.2937443,15.4876507 Z"></path>
                    </g>
                </g>
            </g>
        </g>
    </g>
</svg>

<svg width="28" height="30" viewBox="0 0 28 30" xmlns="http://www.w3.org/2000/svg"><title>Polygon</title><path d="M14 1L1.876 8v14L14 29l12.124-7V8L14 1zm.5-.866l12.124 7a1 1 0 0 1 .5.866v14a1 1 0 0 1-.5.866l-12.124 7a1 1 0 0 1-1 0l-12.124-7a1 1 0 0 1-.5-.866V8a1 1 0 0 1 .5-.866l12.124-7a1 1 0 0 1 1 0zm-4.268 17.423a.5.5 0 1 0-.464.886l3.93 2.056a.5.5 0 0 0 .457.003l4.06-2.056a.5.5 0 0 0-.451-.892l-3.83 1.94-3.702-1.937zm0 3a.5.5 0 1 0-.464.886l3.93 2.056a.5.5 0 0 0 .457.003l4.06-2.056a.5.5 0 0 0-.451-.892l-3.83 1.94-3.702-1.937zm1.493-6.426l2.042-1.074a.5.5 0 0 1 .466 0l2.042 1.074-.39-2.274a.5.5 0 0 1 .144-.443l1.652-1.61-2.283-.332a.5.5 0 0 1-.377-.273L14 7.129 12.979 9.2a.5.5 0 0 1-.377.273l-2.283.332 1.652 1.61a.5.5 0 0 1 .144.443l-.39 2.274zm-.431 1.357a.5.5 0 0 1-.726-.527l.517-3.014-2.19-2.134a.5.5 0 0 1 .278-.853l3.026-.44 1.353-2.741a.5.5 0 0 1 .896 0l1.353 2.741 3.026.44a.5.5 0 0 1 .277.853l-2.19 2.134.518 3.014a.5.5 0 0 1-.726.527L14 14.065l-2.706 1.423z" fill-rule="nonzero" fill="#FFF"/></svg>
